X:1
T:There Is No One Like the Savior
T:There Is No One Like the Savior
T:John Robson Sweney
T:Johnson Oatman, Jr., 1896, alt.
T:Public Domain Courtesy of the Cyber Hymnal™
T:Public Domain Courtesy of the Cyber Hymnal™
C:John Robson Sweney
Z:Public Domain
Z:Courtesy of the Cyber Hymnal™
%%score ( 1 2 ) ( 3 4 )
L:1/8
Q:1/4=100
M:4/4
K:F
V:1 treble 
V:2 treble 
V:3 bass 
V:4 bass 
V:1
 [Fc]2 [Fc]2 [Fd][Fc][CA][CF] | [FA]2 C2 [CF]2 [CF]>[CF] | [EG][EG][EG][FA] [GB][FA][EB][Ed] | %3
w: 1.~Who can wash a sin- ner’s|guilt a- way? There is|no one like the Sav- ior, hal- le-|
w: 2.~When we’re low- ly bent with|grief and care, There is|no one like the Sav- ior, hal- le-|
w: 3.~When we’re tem- pest tossed up-|on life’s deep, There is|no one like the Sav- ior, hal- le-|
w: 4.~When we feel the i- cy|touch of death, There is|no one like the Sav- ior, hal- le-|
w: 5.~In that bless- èd home where|rests the soul, There is|no one like the Sav- ior, hal- le-|
 [Fc]4 [FA]4 | [Fc]2 [Fc]2 [Fd][Fc][CA][CF] | [DF]2 [DB]2 [Fd]2 [Fd]>[Fd] | %6
w: lu- jah!|Who can turn his dark- ness|in- to day? There is|
w: lu- jah!|He speaks, and the sun- beams|lin- ger there, There is|
w: lu- jah!|He speaks, and the wild waves|hush to sleep, There is|
w: lu- jah!|He will take us at our|clos- ing breath, There is|
w: lu- jah!|This shall be our song while|ag- es roll, There is|
 [Fc][FA][Fc][FA] [EG][EB]D[CE] | [EG]4 !fermata![CF]2 ||"^Refrain" F2 | %9
w: no one like the Sav- ior, hal- le-|lu- jah!||
w: no one like the Sav- ior, hal- le-|lu- jah!||
w: no one like the Sav- ior, hal- le-|lu- jah!|O|
w: no one like the Sav- ior, hal- le-|lu- jah!||
w: no one like the Sav- ior, hal- le-|lu- jah!||
 [Fd]2 [DB]2 [DF][DB][Fc][Fd] | [Fc]4 [FA]2 [Fc]>[Fc] | [Ec][EG][EG][FA] [GB][Ed][Ec][EB] | %12
w: |||
w: |||
w: glo- ry, glo- ry, hal- le-|lu- jah! There is|no one like the Sav- ior, hal- le-|
w: |||
w: |||
 [FA]4 [Fc]2 [Fc]>[Fc] | [Fd]2 [FB]2 [FG]2 [Fd]>[Fd] | [Fc]2 [FA]2 [CF]2 CC | %15
w: |||
w: |||
w: lu- jah! While we|live or die, in the|earth or sky, There is|
w: |||
w: |||
 [B,D][GB][FA][DG] [CF][CE][CD][CE] | [CG]4 [CF]4 |] %17
w: ||
w: ||
w: no one like the Sav- ior, hal- le-|lu- jah.|
w: ||
w: ||
V:2
 x8 | x2 C2 x4 | x8 | x8 | x8 | x8 | x6 D x | x6 || F2 | x8 | x8 | x8 | x8 | x8 | x6 CC | x8 | %16
 x8 |] %17
V:3
 [F,A,]2 [F,A,]2 [F,B,][F,A,]F,[F,A,] | [F,C]2 [F,A,]2 [F,A,]2 [F,A,]>[F,A,] | %2
 [C,C][C,C][C,C][C,C] [C,C][C,C][C,G,][C,B,] | [F,A,]4 [F,C]4 | [F,A,]2 [F,A,]2 [F,B,][F,A,]F,A, | %5
 [B,,B,]2 [B,,F,]2 [B,,B,]2 [B,,B,]>[B,,B,] | [C,A,][C,C][C,A,][C,C] [C,B,][C,G,][C,F,][C,G,] | %7
 [C,B,]4 !fermata![F,A,]2 || [F,A,]2 | [B,,B,]2 [B,,F,]2 [B,,B,][B,,B,][F,A,][F,B,] | %10
 [F,A,]4 [F,C]2 [F,A,]>[F,A,] | [C,G,][C,C][C,C][C,C] [C,C][B,C][A,C][G,C] | %12
 [F,C]4 [F,A,]2 [F,A,]>[F,A,] | [B,,B,]2 [B,,D]2 [B,,D]2 [B,,B,]>[B,,B,] | %14
 [F,A,]2 [F,C]2 [F,A,]2 [A,,F,][A,,F,] | [B,,F,][B,,D][B,,C][B,,B,] [C,A,][C,G,][C,F,][C,G,] | %16
 [C,B,]4 [F,A,]4 |] %17
V:4
 x6 F, x | x8 | x8 | x8 | x6 F,[F,A,] | x8 | x8 | x6 || x2 | x8 | x8 | x8 | x8 | x8 | x8 | x8 | %16
 x8 |] %17

